!!!OTL: 1416. Hamburger Maedchen.
!!!ARE: Europa, Mitteleuropa, Deutschland, Brandenburg
!!!SCT: E1416
!!!TXL: @@DE
!!!YEM: Copyright 1995, estate of Helmut Schaffrath.
**kern	**text
*ICvox	*
*M4/4	*
*met(c)	*
*k[f#]	*
*G:	*
=1	=1
!LO:TX:a:t=Gemächlich.	!
!LO:TX:a:t=Aus dem Brandenburgiſchen.	!
{4d	Ham-
4g	-burg
4e	iſt
4a	ein
=2	=2
8gL	ſchö-
8f#J	.
8eL	-nes
8f#J	.
4g	Städt-
4b}	-chen,
=3	=3
{4d	weils
4g	ſo
4e	nah
4a	am
=4	=4
8gL	Waſ-
8f#J	.
8eL	-ſer
8f#J	.
2g}	liegt,
=5	=5
{4.cc	weils
8b	ſo
2a	nah,
=6	=6
4.dd	weils
8b	ſo
4g}	nah
{4b	am
=7	=7
8aL	Waſ-
8ccJ	.
8f#L	-ſer
8aJ	.
2g}	liegt.
==	==
!!!AGN: Staende -, Soldaten - Lied
!!!ONB: ESAC (Essen Associative Code) Database: ERK3
!!!AMT: simple quadruple
!!!AIN: vox
!!!EED: Helmut Schaffrath
!!!EEV: 1.0
!!!GTL: Staendelieder (Berufslieder). 1. Soldaten- und Kriegslieder. Soldatenlieder seit dem 30jaehr. Kriege.
!!!URL-scan: https://rosdok.uni-rostock.de/mcrviewer/recordIdentifier/rosdok_ppn745177999/iview2/phys_0282.iview2?x=-128.77276441889308&y=1573.8834622495342&scale=0.5870222003877485&rotation=0&layout=singlePageLayout
!!!ENC: Anna Maria Matuszewska
!!!EEV: 2024/12/31
*-	*-
